styles/1/Numix/64/places/red-folder-download.svg

<?xml version="1.0" encoding="UTF-8" standalone="no"?>
<!-- Created with Inkscape (http://www.inkscape.org/) -->

<svg
   xmlns:dc="http://purl.org/dc/elements/1.1/"
   xmlns:cc="http://creativecommons.org/ns#"
   xmlns:rdf="http://www.w3.org/1999/02/22-rdf-syntax-ns#"
   xmlns:svg="http://www.w3.org/2000/svg"
   xmlns="http://www.w3.org/2000/svg"
   xmlns:sodipodi="http://sodipodi.sourceforge.net/DTD/sodipodi-0.dtd"
   xmlns:inkscape="http://www.inkscape.org/namespaces/inkscape"
   width="64"
   height="64"
   id="svg2"
   version="1.1"
   inkscape:version="0.91 r"
   sodipodi:docname="red-folder-download.svg"
   inkscape:export-filename="/media/Data/Main/Visuals/Icons/Numix/Desktop/repos/numix-wiki/Gjorgi/Numix-folders/48/New/folder-144.png"
   inkscape:export-xdpi="270"
   inkscape:export-ydpi="270">
  <defs
     id="defs4" />
  <sodipodi:namedview
     id="base"
     pagecolor="#ffffff"
     bordercolor="#666666"
     borderopacity="1.0"
     inkscape:pageopacity="0.0"
     inkscape:pageshadow="2"
     inkscape:zoom="18.36755"
     inkscape:cx="34.397148"
     inkscape:cy="35.833512"
     inkscape:document-units="px"
     inkscape:current-layer="layer1"
     showgrid="true"
     inkscape:window-width="1280"
     inkscape:window-height="998"
     inkscape:window-x="0"
     inkscape:window-y="0"
     inkscape:window-maximized="1"
     showguides="true"
     inkscape:guide-bbox="true">
    <inkscape:grid
       type="xygrid"
       id="grid2985"
       empspacing="5"
       visible="true"
       enabled="true"
       snapvisiblegridlinesonly="true" />
  </sodipodi:namedview>
  <metadata
     id="metadata7">
    <rdf:RDF>
      <cc:Work
         rdf:about="">
        <dc:format>image/svg+xml</dc:format>
        <dc:type
           rdf:resource="http://purl.org/dc/dcmitype/StillImage" />
        <dc:title />
      </cc:Work>
    </rdf:RDF>
  </metadata>
  <g
     inkscape:label="Layer 1"
     inkscape:groupmode="layer"
     id="layer1"
     transform="translate(0,-988.3622)">
    <path
       style="font-size:medium;font-style:normal;font-variant:normal;font-weight:normal;font-stretch:normal;text-indent:0;text-align:start;text-decoration:none;line-height:normal;letter-spacing:normal;word-spacing:normal;text-transform:none;direction:ltr;block-progression:tb;writing-mode:lr-tb;text-anchor:start;baseline-shift:baseline;color:#000000;fill:#ef5350;fill-opacity:1;fill-rule:nonzero;stroke:none;stroke-width:2.28612947;marker:none;visibility:visible;display:inline;overflow:visible;enable-background:accumulate;font-family:Sans;-inkscape-font-specification:Sans"
       d="M 6.0625 10 C 4.933085 10.1109 3.981587 11.17777 4 12.3125 L 4 51.6875 C 3.986 52.9021 5.097925 54.0139 6.3125 54 L 57.6875 54 C 58.902076 54.014 60.013966 52.9021 60 51.6875 L 60 16.3125 C 60.014 15.0979 58.902076 13.9861 57.6875 14 L 38 14 L 38 12.3125 C 38.01375 11.11867 36.943717 10.019 35.75 10 L 6.3125 10 C 6.22925 10 6.14575 9.9999 6.0625 10 z M 32 21 C 33.108 21 34 21.892 34 23 L 34 33 L 38 33 C 40 33 40 33 38 35 L 34 39 C 32 41 32 41 30 39 L 26 35 C 24 33 24 33 26 33 L 30 33 L 30 23 C 30 21.892 30.892 21 32 21 z M 19.9375 35 L 20.0625 35 C 21.131114 35 22 35.892 22 37 L 22 43 L 42 43 L 42 37 C 42 35.892 42.868886 35 43.9375 35 L 44.0625 35 C 45.131114 35 46 35.892 46 37 L 46 44.90625 L 46 45.09375 C 45.995299 45.19923 45.988485 45.305742 45.96875 45.40625 C 45.965052 45.427055 45.973145 45.448185 45.96875 45.46875 C 45.943902 45.578393 45.885124 45.679489 45.84375 45.78125 C 45.793102 45.905836 45.731891 46.014827 45.65625 46.125 C 45.651083 46.132525 45.661525 46.1488 45.65625 46.15625 C 45.599293 46.241336 45.537475 46.3003 45.46875 46.375 C 45.458639 46.385539 45.447856 46.395932 45.4375 46.40625 C 45.43209 46.411859 45.411724 46.400708 45.40625 46.40625 C 45.400708 46.411657 45.411859 46.432156 45.40625 46.4375 C 45.327594 46.515472 45.246809 46.592919 45.15625 46.65625 C 45.143983 46.664522 45.137471 46.679488 45.125 46.6875 C 45.080574 46.717187 45.015604 46.724101 44.96875 46.75 C 44.680984 46.902343 44.353839 47 44 47 L 43.9375 47 L 20.0625 47 L 20 47 C 19.978818 47 19.95852 47.000617 19.9375 47 C 19.824353 47 19.701452 46.987948 19.59375 46.96875 C 19.574186 46.964956 19.550599 46.973081 19.53125 46.96875 C 19.415557 46.944327 19.325792 46.88849 19.21875 46.84375 C 19.20973 46.840128 19.196451 46.847494 19.1875 46.84375 C 19.133813 46.820284 19.0823 46.778218 19.03125 46.75 C 18.967897 46.716461 18.902598 46.695932 18.84375 46.65625 C 18.753191 46.592919 18.672406 46.515472 18.59375 46.4375 C 18.583154 46.427407 18.572856 46.416568 18.5625 46.40625 C 18.551772 46.395127 18.541722 46.386383 18.53125 46.375 C 18.458888 46.299579 18.402708 46.210874 18.34375 46.125 C 18.268109 46.014827 18.206898 45.905836 18.15625 45.78125 C 18.114876 45.679489 18.056098 45.578393 18.03125 45.46875 C 18.026855 45.448185 18.034948 45.427055 18.03125 45.40625 C 18.011515 45.305742 18.004701 45.19923 18 45.09375 L 18 45 L 18 44.90625 L 18 37 C 18 35.892 18.868886 35 19.9375 35 z "
       transform="translate(0,988.3622)"
       id="path3912" />
  </g>
</svg>

<!-- Created with Inkscape (http://www.inkscape.org/) -->
<svg xmlns="http://www.w3.org/2000/svg" viewBox="0 0 64 64">
 <g transform="translate(0,-988.3622)">
  <path d="m 6.06 10 c -1.129 0.111 -2.081 1.178 -2.063 2.313 l 0 39.38 c -0.014 1.215 1.098 2.326 2.313 2.313 l 51.38 0 c 1.215 0.014 2.326 -1.098 2.313 -2.313 l 0 -35.37 c 0.014 -1.215 -1.098 -2.326 -2.313 -2.313 l -19.688 0 l 0 -1.688 c 0.014 -1.194 -1.056 -2.294 -2.25 -2.313 l -29.438 0 c -0.083 0 -0.167 0 -0.25 0 z m 25.938 11 c 1.108 0 2 0.892 2 2 l 0 10 l 4 0 c 2 0 2 0 0 2 l -4 4 c -2 2 -2 2 -4 0 l -4 -4 c -2 -2 -2 -2 0 -2 l 4 0 l 0 -10 c 0 -1.108 0.892 -2 2 -2 z m -12.06 14 l 0.125 0 c 1.069 0 1.938 0.892 1.938 2 l 0 6 l 20 0 l 0 -6 c 0 -1.108 0.869 -2 1.938 -2 l 0.125 0 c 1.069 0 1.938 0.892 1.938 2 l 0 7.906 l 0 0.188 c -0.005 0.105 -0.012 0.212 -0.031 0.313 c -0.004 0.021 0.004 0.042 0 0.063 c -0.025 0.11 -0.084 0.211 -0.125 0.313 c -0.051 0.125 -0.112 0.234 -0.188 0.344 c -0.005 0.008 0.005 0.024 0 0.031 c -0.057 0.085 -0.119 0.144 -0.188 0.219 c -0.01 0.011 -0.021 0.021 -0.031 0.031 c -0.005 0.006 -0.026 -0.006 -0.031 0 c -0.006 0.005 0.006 0.026 0 0.031 c -0.079 0.078 -0.159 0.155 -0.25 0.219 c -0.012 0.008 -0.019 0.023 -0.031 0.031 c -0.044 0.03 -0.109 0.037 -0.156 0.063 c -0.288 0.152 -0.615 0.25 -0.969 0.25 l -0.063 0 l -23.875 0 l -0.063 0 c -0.021 0 -0.041 0.001 -0.063 0 c -0.113 0 -0.236 -0.012 -0.344 -0.031 c -0.02 -0.004 -0.043 0.004 -0.063 0 c -0.116 -0.024 -0.205 -0.08 -0.313 -0.125 c -0.009 -0.004 -0.022 0.004 -0.031 0 c -0.054 -0.023 -0.105 -0.066 -0.156 -0.094 c -0.063 -0.034 -0.129 -0.054 -0.188 -0.094 c -0.091 -0.063 -0.171 -0.141 -0.25 -0.219 c -0.011 -0.01 -0.021 -0.021 -0.031 -0.031 c -0.011 -0.011 -0.021 -0.02 -0.031 -0.031 c -0.072 -0.075 -0.129 -0.164 -0.188 -0.25 c -0.076 -0.11 -0.137 -0.219 -0.188 -0.344 c -0.041 -0.102 -0.1 -0.203 -0.125 -0.313 c -0.004 -0.021 0.004 -0.042 0 -0.063 c -0.02 -0.101 -0.027 -0.207 -0.031 -0.313 l 0 -0.094 l 0 -0.094 l 0 -7.906 c 0 -1.108 0.869 -2 1.938 -2 z" transform="translate(0,988.3622)" style="visibility:visible;fill:#ef5350;fill-opacity:1;stroke:none;display:inline;color:#000;fill-rule:nonzero"/>
 </g>
</svg>
